X: 4
T: The Castlebar Races
R: jig
M: 6/8
L: 1/8
K: Gmaj
| : a | gdc BcA | GAB d2a | gdc BcA | GBd e2a |
gdc BcA | GAB def | gfe fdB | ABd e2 : |
| : a | gfg bag | fef def | ~g3 bag | fef  e2d |
~g3 bag | fef def | gfe fdB | ABd e2 : |


Tune 1205	Setting 1205

